svg/u1f683.svg

<svg viewBox="0 0 128 128" xmlns="http://www.w3.org/2000/svg">
  <g>
    <circle cx="23" cy="115.03" r="8.97" fill="#455A64"/>
    <path d="M25.2,116.4c-0.52,0.64-1.3,1.07-2.2,1.07c-0.89,0-1.68-0.42-2.2-1.07h-3.58 c0.62,2.63,2.96,4.59,5.78,4.59s5.16-1.96,5.78-4.59H25.2z" fill="#607D8B"/>
    <circle cx="46.74" cy="115.03" r="8.97" fill="#455A64"/>
    <path d="M48.94,116.4c-0.52,0.64-1.3,1.07-2.2,1.07s-1.68-0.42-2.2-1.07h-3.58 c0.62,2.63,2.96,4.59,5.78,4.59s5.16-1.96,5.78-4.59H48.94z" fill="#607D8B"/>
    <polygon points="46.61,117.43 23.47,117.43 20.51,109.76 49.21,109.76 " fill="#455A64"/>
    <circle cx="82.14" cy="115.03" r="8.97" fill="#455A64"/>
    <path d="M84.34,116.4c-0.52,0.64-1.3,1.07-2.2,1.07s-1.68-0.42-2.2-1.07h-3.58 c0.62,2.63,2.96,4.59,5.78,4.59s5.16-1.96,5.78-4.59H84.34z" fill="#607D8B"/>
    <circle cx="105.88" cy="115.03" r="8.97" fill="#455A64"/>
    <path d="M108.07,116.4c-0.52,0.64-1.3,1.07-2.2,1.07s-1.68-0.42-2.2-1.07h-3.58 c0.62,2.63,2.96,4.59,5.78,4.59s5.16-1.96,5.78-4.59H108.07z" fill="#607D8B"/>
    <polygon points="105.74,117.43 82.61,117.43 79.65,109.76 108.34,109.76 " fill="#455A64"/>
    <rect height="64.9" fill="#FFECB3" width="115.36" x="6.32" y="43.96"/>
    <rect height="15.96" fill="#FFCA28" width="115.36" x="6.32" y="91.88"/>
    <path d="M6.32,42.42h115.36c-1.27-5.61-6.27-8.33-12.26-8.33H18.58C12.59,34.08,7.59,36.81,6.32,42.42z" fill="#00796B"/>
    <rect height="3" fill="#004D40" width="115.36" x="6.32" y="42.38"/>
    <path d="M122.79,114.2H5.21c-0.67,0-1.21-0.54-1.21-1.21v-3.94c0-0.67,0.54-1.21,1.21-1.21h117.57 c0.67,0,1.21,0.54,1.21,1.21v3.94C124,113.65,123.46,114.2,122.79,114.2z" fill="#82AEC0"/>
    <rect height="6" fill="#E2A610" width="115.36" x="6.32" y="95.83"/>
    <rect height="6" fill="#4CA854" width="115.36" x="6.32" y="89.83"/>
  </g>
  <g>
    <g>
      <path d="M25.33,80.97H12.8c-0.55,0-1-0.45-1-1V64.94c0-0.55,0.45-1,1-1h12.54c0.55,0,1,0.45,1,1v15.03 C26.34,80.53,25.89,80.97,25.33,80.97z" fill="#BAE2FD"/>
      <path d="M12.29,65.92l0,13.07c0,0.49,0.36,0.89,0.81,0.89l11.93,0c0.45,0,0.81-0.4,0.81-0.89l0-13.07 c0-0.49-0.36-0.89-0.81-0.89l-11.93,0C12.66,65.03,12.29,65.43,12.29,65.92z M25.34,82.07H12.79c-1.1,0-2-0.98-2-2.19V65.04 c0-1.21,0.89-2.19,1.99-2.19h12.55c1.1,0,1.99,0.98,1.99,2.19v14.84C27.33,81.09,26.44,82.07,25.34,82.07z" fill="#37474F"/>
    </g>
    <g>
      <path d="M47.8,80.97H35.26c-0.55,0-1-0.45-1-1V64.94c0-0.55,0.45-1,1-1H47.8c0.55,0,1,0.45,1,1v15.03 C48.8,80.53,48.36,80.97,47.8,80.97z" fill="#BAE2FD"/>
      <path d="M34.76,65.92l0,13.07c0,0.49,0.36,0.89,0.81,0.89l11.93,0c0.45,0,0.81-0.4,0.81-0.89l0-13.07 c0-0.49-0.36-0.89-0.81-0.89l-11.93,0C35.12,65.03,34.76,65.43,34.76,65.92z M47.81,82.07H35.26c-1.1,0-2-0.98-2-2.19V65.04 c0-1.21,0.89-2.19,1.99-2.19h12.55c1.1,0,1.99,0.98,1.99,2.19v14.84C49.8,81.09,48.91,82.07,47.81,82.07z" fill="#37474F"/>
      <path d="M34.76,71.17v-0.55c0-0.31,0.25-0.56,0.56-0.56h12.42c0.31,0,0.56,0.25,0.56,0.56v0.55h1v-1.64 c0-0.31-0.25-0.56-0.56-0.56H34.32c-0.31,0-0.56,0.25-0.56,0.56v1.64H34.76z" fill="#37474F"/>
    </g>
    <g>
      <path d="M70.27,80.97H57.73c-0.55,0-1-0.45-1-1V64.94c0-0.55,0.45-1,1-1h12.54c0.55,0,1,0.45,1,1v15.03 C71.27,80.53,70.82,80.97,70.27,80.97z" fill="#BAE2FD"/>
      <path d="M57.23,65.92l0,13.07c0,0.49,0.36,0.89,0.81,0.89l11.93,0c0.45,0,0.81-0.4,0.81-0.89l0-13.07 c0-0.49-0.36-0.89-0.81-0.89l-11.93,0C57.59,65.03,57.23,65.43,57.23,65.92z M70.27,82.07H57.73c-1.1,0-2-0.98-2-2.19V65.04 c0-1.21,0.89-2.19,1.99-2.19h12.55c1.1,0,1.99,0.98,1.99,2.19v14.84C72.27,81.09,71.38,82.07,70.27,82.07z" fill="#37474F"/>
      <path d="M57.23,71.17v-0.55c0-0.31,0.25-0.56,0.56-0.56h12.42c0.31,0,0.56,0.25,0.56,0.56v0.55h1v-1.64 c0-0.31-0.25-0.56-0.56-0.56H56.79c-0.31,0-0.56,0.25-0.56,0.56v1.64H57.23z" fill="#37474F"/>
    </g>
    <g>
      <path d="M92.74,80.97H80.2c-0.55,0-1-0.45-1-1V64.94c0-0.55,0.45-1,1-1h12.54c0.55,0,1,0.45,1,1v15.03 C93.74,80.53,93.29,80.97,92.74,80.97z" fill="#BAE2FD"/>
      <path d="M79.7,65.92l0,13.07c0,0.49,0.36,0.89,0.81,0.89l11.93,0c0.45,0,0.81-0.4,0.81-0.89l0-13.07 c0-0.49-0.36-0.89-0.81-0.89l-11.93,0C80.06,65.03,79.7,65.43,79.7,65.92z M92.74,82.07H80.2c-1.1,0-2-0.98-2-2.19V65.04 c0-1.21,0.89-2.19,1.99-2.19h12.55c1.1,0,1.99,0.98,1.99,2.19v14.84C94.74,81.09,93.84,82.07,92.74,82.07z" fill="#37474F"/>
    </g>
    <g>
      <path d="M115.2,80.97h-12.54c-0.55,0-1-0.45-1-1V64.94c0-0.55,0.45-1,1-1h12.54c0.55,0,1,0.45,1,1v15.03 C116.21,80.53,115.76,80.97,115.2,80.97z" fill="#BAE2FD"/>
      <path d="M102.16,65.92l0,13.07c0,0.49,0.36,0.89,0.81,0.89l11.93,0c0.45,0,0.81-0.4,0.81-0.89l0-13.07 c0-0.49-0.36-0.89-0.81-0.89l-11.93,0C102.53,65.03,102.16,65.43,102.16,65.92z M115.21,82.07h-12.55c-1.1,0-2-0.98-2-2.19V65.04 c0-1.21,0.89-2.19,1.99-2.19h12.55c1.1,0,1.99,0.98,1.99,2.19v14.84C117.2,81.09,116.31,82.07,115.21,82.07z" fill="#37474F"/>
    </g>
    <path d="M79.69,71.17v-0.55c0-0.31,0.25-0.56,0.56-0.56h12.42c0.31,0,0.56,0.25,0.56,0.56v0.55h1v-1.64 c0-0.31-0.25-0.56-0.56-0.56H79.26c-0.31,0-0.56,0.25-0.56,0.56v1.64H79.69z" fill="#37474F"/>
    <path d="M102.16,71.17v-0.55c0-0.31,0.25-0.56,0.56-0.56h12.42c0.31,0,0.56,0.25,0.56,0.56v0.55h1v-1.64 c0-0.31-0.25-0.56-0.56-0.56h-14.41c-0.31,0-0.56,0.25-0.56,0.56v1.64H102.16z" fill="#37474F"/>
    <path d="M12.29,71.17v-0.55c0-0.31,0.25-0.56,0.56-0.56h12.42c0.31,0,0.56,0.25,0.56,0.56v0.55h1v-1.64 c0-0.31-0.25-0.56-0.56-0.56H11.86c-0.31,0-0.56,0.25-0.56,0.56v1.64H12.29z" fill="#37474F"/>
  </g>
</svg>

<svg viewBox="0 0 128 128" xmlns="http://www.w3.org/2000/svg">
  <defs/>
  <path d="M31.97,115.03 A8.97 8.97 0 1 1 14.03,115.03 A8.97 8.97 0 1 1 31.97,115.03 Z" fill="#455A64"/>
  <path d="M25.2,116.4 C24.68,117.04 23.9,117.47 23,117.47 C22.11,117.47 21.32,117.05 20.8,116.4 L17.22,116.4 C17.84,119.03 20.18,120.99 23,120.99 C25.82,120.99 28.16,119.03 28.78,116.4 L25.2,116.4 Z" fill="#607D8B"/>
  <path d="M55.71,115.03 A8.97 8.97 0 1 1 37.77,115.03 A8.97 8.97 0 1 1 55.71,115.03 Z" fill="#455A64"/>
  <path d="M48.94,116.4 C48.42,117.04 47.64,117.47 46.74,117.47 C45.84,117.47 45.06,117.05 44.54,116.4 L40.96,116.4 C41.58,119.03 43.92,120.99 46.74,120.99 C49.56,120.99 51.9,119.03 52.52,116.4 L48.94,116.4 Z" fill="#607D8B"/>
  <path d="M46.61,117.43 L23.47,117.43 L20.51,109.76 L49.21,109.76 Z" fill="#455A64"/>
  <path d="M91.11,115.03 A8.97 8.97 0 1 1 73.17,115.03 A8.97 8.97 0 1 1 91.11,115.03 Z" fill="#455A64"/>
  <path d="M84.34,116.4 C83.82,117.04 83.04,117.47 82.14,117.47 C81.24,117.47 80.46,117.05 79.94,116.4 L76.36,116.4 C76.98,119.03 79.32,120.99 82.14,120.99 C84.96,120.99 87.3,119.03 87.92,116.4 L84.34,116.4 Z" fill="#607D8B"/>
  <path d="M114.85,115.03 A8.97 8.97 0 1 1 96.91,115.03 A8.97 8.97 0 1 1 114.85,115.03 Z" fill="#455A64"/>
  <path d="M108.07,116.4 C107.55,117.04 106.77,117.47 105.87,117.47 C104.97,117.47 104.19,117.05 103.67,116.4 L100.09,116.4 C100.71,119.03 103.05,120.99 105.87,120.99 C108.69,120.99 111.03,119.03 111.65,116.4 L108.07,116.4 Z" fill="#607D8B"/>
  <path d="M105.74,117.43 L82.61,117.43 L79.65,109.76 L108.34,109.76 Z" fill="#455A64"/>
  <path d="M6.32,43.96 L121.68,43.96 L121.68,108.86 L6.32,108.86 L6.32,43.96 Z" fill="#FFECB3"/>
  <path d="M6.32,91.88 L121.68,91.88 L121.68,107.84 L6.32,107.84 L6.32,91.88 Z" fill="#FFCA28"/>
  <path d="M6.32,42.42 L121.68,42.42 C120.41,36.81 115.41,34.09 109.42,34.09 L18.58,34.09 C12.59,34.08 7.59,36.81 6.32,42.42 Z" fill="#00796B"/>
  <path d="M6.32,42.38 L121.68,42.38 L121.68,45.38 L6.32,45.38 L6.32,42.38 Z" fill="#004D40"/>
  <path d="M122.79,114.2 L5.21,114.2 C4.54,114.2 4,113.66 4,112.99 L4,109.05 C4,108.38 4.54,107.84 5.21,107.84 L122.78,107.84 C123.45,107.84 123.99,108.38 123.99,109.05 L123.99,112.99 C124,113.65 123.46,114.2 122.79,114.2 Z" fill="#82AEC0"/>
  <path d="M6.32,95.83 L121.68,95.83 L121.68,101.83 L6.32,101.83 L6.32,95.83 Z" fill="#E2A610"/>
  <path d="M6.32,89.83 L121.68,89.83 L121.68,95.83 L6.32,95.83 L6.32,89.83 Z" fill="#4CA854"/>
  <path d="M25.33,80.97 L12.8,80.97 C12.25,80.97 11.8,80.52 11.8,79.97 L11.8,64.94 C11.8,64.39 12.25,63.94 12.8,63.94 L25.34,63.94 C25.89,63.94 26.34,64.39 26.34,64.94 L26.34,79.97 C26.34,80.53 25.89,80.97 25.33,80.97 Z" fill="#BAE2FD"/>
  <path d="M12.29,65.92 L12.29,78.99 C12.29,79.48 12.65,79.88 13.1,79.88 L25.03,79.88 C25.48,79.88 25.84,79.48 25.84,78.99 L25.84,65.92 C25.84,65.43 25.48,65.03 25.03,65.03 L13.1,65.03 C12.66,65.03 12.29,65.43 12.29,65.92 Z M25.34,82.07 L12.79,82.07 C11.69,82.07 10.79,81.09 10.79,79.88 L10.79,65.04 C10.79,63.83 11.68,62.85 12.78,62.85 L25.33,62.85 C26.43,62.85 27.32,63.83 27.32,65.04 L27.32,79.88 C27.33,81.09 26.44,82.07 25.34,82.07 Z" fill="#37474F"/>
  <path d="M47.8,80.97 L35.26,80.97 C34.71,80.97 34.26,80.52 34.26,79.97 L34.26,64.94 C34.26,64.39 34.71,63.94 35.26,63.94 L47.8,63.94 C48.35,63.94 48.8,64.39 48.8,64.94 L48.8,79.97 C48.8,80.53 48.36,80.97 47.8,80.97 Z" fill="#BAE2FD"/>
  <path d="M34.76,65.92 L34.76,78.99 C34.76,79.48 35.12,79.88 35.57,79.88 L47.5,79.88 C47.95,79.88 48.31,79.48 48.31,78.99 L48.31,65.92 C48.31,65.43 47.95,65.03 47.5,65.03 L35.57,65.03 C35.12,65.03 34.76,65.43 34.76,65.92 Z M47.81,82.07 L35.26,82.07 C34.16,82.07 33.26,81.09 33.26,79.88 L33.26,65.04 C33.26,63.83 34.15,62.85 35.25,62.85 L47.8,62.85 C48.9,62.85 49.79,63.83 49.79,65.04 L49.79,79.88 C49.8,81.09 48.91,82.07 47.81,82.07 Z" fill="#37474F"/>
  <path d="M34.76,71.17 L34.76,70.62 C34.76,70.31 35.01,70.06 35.32,70.06 L47.74,70.06 C48.05,70.06 48.3,70.31 48.3,70.62 L48.3,71.17 L49.3,71.17 L49.3,69.53 C49.3,69.22 49.05,68.97 48.74,68.97 L34.32,68.97 C34.01,68.97 33.76,69.22 33.76,69.53 L33.76,71.17 L34.76,71.17 Z" fill="#37474F"/>
  <path d="M70.27,80.97 L57.73,80.97 C57.18,80.97 56.73,80.52 56.73,79.97 L56.73,64.94 C56.73,64.39 57.18,63.94 57.73,63.94 L70.27,63.94 C70.82,63.94 71.27,64.39 71.27,64.94 L71.27,79.97 C71.27,80.53 70.82,80.97 70.27,80.97 Z" fill="#BAE2FD"/>
  <path d="M57.23,65.92 L57.23,78.99 C57.23,79.48 57.59,79.88 58.04,79.88 L69.97,79.88 C70.42,79.88 70.78,79.48 70.78,78.99 L70.78,65.92 C70.78,65.43 70.42,65.03 69.97,65.03 L58.04,65.03 C57.59,65.03 57.23,65.43 57.23,65.92 Z M70.27,82.07 L57.73,82.07 C56.63,82.07 55.73,81.09 55.73,79.88 L55.73,65.04 C55.73,63.83 56.62,62.85 57.72,62.85 L70.27,62.85 C71.37,62.85 72.26,63.83 72.26,65.04 L72.26,79.88 C72.27,81.09 71.38,82.07 70.27,82.07 Z" fill="#37474F"/>
  <path d="M57.23,71.17 L57.23,70.62 C57.23,70.31 57.48,70.06 57.79,70.06 L70.21,70.06 C70.52,70.06 70.77,70.31 70.77,70.62 L70.77,71.17 L71.77,71.17 L71.77,69.53 C71.77,69.22 71.52,68.97 71.21,68.97 L56.79,68.97 C56.48,68.97 56.23,69.22 56.23,69.53 L56.23,71.17 L57.23,71.17 Z" fill="#37474F"/>
  <path d="M92.74,80.97 L80.2,80.97 C79.65,80.97 79.2,80.52 79.2,79.97 L79.2,64.94 C79.2,64.39 79.65,63.94 80.2,63.94 L92.74,63.94 C93.29,63.94 93.74,64.39 93.74,64.94 L93.74,79.97 C93.74,80.53 93.29,80.97 92.74,80.97 Z" fill="#BAE2FD"/>
  <path d="M79.7,65.92 L79.7,78.99 C79.7,79.48 80.06,79.88 80.51,79.88 L92.44,79.88 C92.89,79.88 93.25,79.48 93.25,78.99 L93.25,65.92 C93.25,65.43 92.89,65.03 92.44,65.03 L80.51,65.03 C80.06,65.03 79.7,65.43 79.7,65.92 Z M92.74,82.07 L80.2,82.07 C79.1,82.07 78.2,81.09 78.2,79.88 L78.2,65.04 C78.2,63.83 79.09,62.85 80.19,62.85 L92.74,62.85 C93.84,62.85 94.73,63.83 94.73,65.04 L94.73,79.88 C94.74,81.09 93.84,82.07 92.74,82.07 Z" fill="#37474F"/>
  <path d="M115.2,80.97 L102.66,80.97 C102.11,80.97 101.66,80.52 101.66,79.97 L101.66,64.94 C101.66,64.39 102.11,63.94 102.66,63.94 L115.2,63.94 C115.75,63.94 116.2,64.39 116.2,64.94 L116.2,79.97 C116.21,80.53 115.76,80.97 115.2,80.97 Z" fill="#BAE2FD"/>
  <path d="M102.16,65.92 L102.16,78.99 C102.16,79.48 102.52,79.88 102.97,79.88 L114.9,79.88 C115.35,79.88 115.71,79.48 115.71,78.99 L115.71,65.92 C115.71,65.43 115.35,65.03 114.9,65.03 L102.97,65.03 C102.53,65.03 102.16,65.43 102.16,65.92 Z M115.21,82.07 L102.66,82.07 C101.56,82.07 100.66,81.09 100.66,79.88 L100.66,65.04 C100.66,63.83 101.55,62.85 102.65,62.85 L115.2,62.85 C116.3,62.85 117.19,63.83 117.19,65.04 L117.19,79.88 C117.2,81.09 116.31,82.07 115.21,82.07 Z" fill="#37474F"/>
  <path d="M79.69,71.17 L79.69,70.62 C79.69,70.31 79.94,70.06 80.25,70.06 L92.67,70.06 C92.98,70.06 93.23,70.31 93.23,70.62 L93.23,71.17 L94.23,71.17 L94.23,69.53 C94.23,69.22 93.98,68.97 93.67,68.97 L79.26,68.97 C78.95,68.97 78.7,69.22 78.7,69.53 L78.7,71.17 L79.69,71.17 Z" fill="#37474F"/>
  <path d="M102.16,71.17 L102.16,70.62 C102.16,70.31 102.41,70.06 102.72,70.06 L115.14,70.06 C115.45,70.06 115.7,70.31 115.7,70.62 L115.7,71.17 L116.7,71.17 L116.7,69.53 C116.7,69.22 116.45,68.97 116.14,68.97 L101.73,68.97 C101.42,68.97 101.17,69.22 101.17,69.53 L101.17,71.17 L102.16,71.17 Z" fill="#37474F"/>
  <path d="M12.29,71.17 L12.29,70.62 C12.29,70.31 12.54,70.06 12.85,70.06 L25.27,70.06 C25.58,70.06 25.83,70.31 25.83,70.62 L25.83,71.17 L26.83,71.17 L26.83,69.53 C26.83,69.22 26.58,68.97 26.27,68.97 L11.86,68.97 C11.55,68.97 11.3,69.22 11.3,69.53 L11.3,71.17 L12.29,71.17 Z" fill="#37474F"/>
</svg>
